assets/images/icons/religious.svg

<svg width="32" height="32" viewBox="0 0 32 32" fill="none" xmlns="http://www.w3.org/2000/svg">
<path opacity="0.1" d="M0.223155 23.1618C-0.0589054 20.752 -0.098086 18.3874 0.248062 16.248C0.673696 13.6174 1.78493 10.6909 2.99894 8.07362C5.37163 2.95839 9.61911 1.16885 14.7912 0.362065C22.0007 -0.762522 31.9372 0.362091 32 9.08714C31.6383 12.2073 29.2517 20.8815 21.1951 21.5434C18.5313 21.7622 17.5348 24.4378 16.3612 27.5006C13.2729 35.5602 1.25575 31.9835 0.223155 23.1618Z" fill="#7FB51F"/>
<g clip-path="url(#clip0_242_6480)">
<path d="M26.4928 19.3315H25.6881C25.431 19.3315 25.1895 19.2085 25.0383 19.0007L20.5299 12.8041C20.1696 12.3327 19.6101 12.0561 19.0168 12.0561H18.0255C17.8114 12.0561 17.6378 11.8825 17.6378 11.6684V10.7498C17.6378 10.5685 17.7305 10.4008 17.8821 10.3012C18.8246 9.68203 19.4434 8.61028 19.4292 7.39499C19.4073 5.52347 17.8593 4.00171 15.9876 4.01029C14.1031 4.01896 12.578 5.54934 12.578 7.43595C12.578 8.6338 13.1928 9.68808 14.1241 10.3004C14.2761 10.4003 14.3696 10.5681 14.3696 10.75V11.6684C14.3696 11.8825 14.196 12.0561 13.9819 12.0561H12.7277C12.1344 12.0561 11.5749 12.3327 11.2146 12.8041L6.71338 19.0503C6.56234 19.2599 6.31975 19.3842 6.06136 19.3842H5.50713C4.67479 19.3841 4 20.0589 4 20.8913C4 21.7237 4.67475 22.3984 5.50713 22.3984H6.9877C6.07424 22.9088 5.4562 23.8846 5.4562 25.0053C5.4562 26.6537 6.79248 27.99 8.44085 27.99H21.0851L11.1521 22.4862C10.3625 22.18 9.52132 22.0206 8.67 22.0206H8.61147C8.72815 21.9274 8.83387 21.8191 8.92441 21.6962L11.7863 17.4346V21.1909C11.8002 21.1975 11.8142 21.2037 11.8278 21.2112L16.0337 23.5423L19.9582 21.188V17.4346L22.8274 21.6435C22.9221 21.7721 23.0332 21.8847 23.1562 21.9806C22.0712 21.9968 20.9253 22.295 19.9582 22.8321V22.8274L17.4541 24.3296L23.8808 27.8915C25.2529 27.6226 26.2883 26.414 26.2883 24.9632V24.9488C26.2883 23.8231 25.6648 22.8499 24.7445 22.3458H26.4929C27.3253 22.3458 28 21.6711 28 20.8387C28 20.0062 27.3252 19.3315 26.4928 19.3315Z" fill="#7FB51F"/>
</g>
<defs>
<clipPath id="clip0_242_6480">
<rect width="24" height="24" fill="white" transform="translate(4 4)"/>
</clipPath>
</defs>
</svg>

<svg xmlns="http://www.w3.org/2000/svg" width="32" height="32" fill="none"><path fill="#7FB51F" d="M.223 23.162c-.282-2.41-.321-4.775.025-6.914.426-2.63 1.537-5.557 2.75-8.174C5.373 2.958 9.62 1.169 14.792.362 22.001-.763 31.937.362 32 9.087c-.362 3.12-2.748 11.795-10.805 12.456-2.664.22-3.66 2.895-4.834 5.958-3.088 8.06-15.105 4.482-16.138-4.34" opacity=".1"/><g clip-path="url(#a)"><path fill="#7FB51F" d="M26.493 19.332h-.805a.8.8 0 0 1-.65-.331l-4.508-6.197a1.9 1.9 0 0 0-1.513-.748h-.991a.39.39 0 0 1-.388-.388v-.918c0-.181.092-.35.244-.449a3.42 3.42 0 0 0 1.547-2.906 3.44 3.44 0 0 0-3.441-3.385 3.426 3.426 0 0 0-1.864 6.29.54.54 0 0 1 .246.45v.918a.39.39 0 0 1-.388.388h-1.254c-.594 0-1.153.277-1.513.748L6.713 19.05a.8.8 0 0 1-.652.334h-.554a1.507 1.507 0 1 0 0 3.014h1.48a2.983 2.983 0 0 0 1.454 5.592h12.644l-9.933-5.504a6.9 6.9 0 0 0-2.482-.465h-.059q.177-.14.313-.325l2.862-4.261v3.756l.042.02 4.206 2.331 3.924-2.354v-3.753l2.87 4.209q.142.192.328.337a6.94 6.94 0 0 0-3.198.851v-.005l-2.504 1.503 6.427 3.562a2.985 2.985 0 0 0 2.407-2.929v-.014a2.96 2.96 0 0 0-1.544-2.603h1.749a1.507 1.507 0 1 0 0-3.015"/></g><defs><clipPath id="a"><path fill="#fff" d="M4 4h24v24H4z"/></clipPath></defs></svg>
